X: 2
T: The Otter's Holt
R: reel
M: 4/4
L: 1/8
K: Bmin
e |:"Bm"fBBA FEFB |"Bm"ABFB "A"ABde |"G"fBBA FEFA      | "A" BdcA ~B3e  |
  |"G"fBBA FEFB   |"Bm"ABFB "A"ABde | "Bm"faaf "G"effe |1 "A"dBBA ~B3e :|2 "A"dBAF B3c   |]
  |:"D"d2fd Adfa  |"D"bfaf "G"effe  |"D"d2fd Adfa      |"G"bfaf "A"~e3f |
  |"D"~d2fd Adfa  |"A"bfaf efde     |"G"fBBA FEFA      |1"A"BdcA ~B3c  :|2"A"BdcA "Bm"B4 |]
